X: 216
T: Reel de Montreal
O: Trad
R: reel
M: 4/4
L: 1/8
%% Q: 3/8=108
K: G
|: "G"g2 fe dcBA | GBDG B2AG | "D7"FADF AcBA | "G"GBDG Bdef |
| "G"g2 fe dcBA | GBDG B2AG | "D7"FGAB cdef | "G"g2gf g2 z2 :|
K: D
|: "D"A2 FA d2Ad | f2df a2ab | "A7"a2g2 efga | "D"b2a2 f2d2 |
| "D"A2 FA d2Ad | f2df a2ab | "A7"a2g2 eABc |1 "D"d4 B4 :|2 "D"d2d2 "D7"e2f2 |
